packages/katcn/src/icons/svg/temperature.svg

<svg width="24" height="25" viewBox="0 0 24 25" fill="none" xmlns="http://www.w3.org/2000/svg">
<path d="M15.7 13.468V5.66796C15.7 3.66796 14.1 1.96796 12 1.96796C11 1.96796 10.1 2.36796 9.4 3.06796C8.7 3.76796 8.3 4.66796 8.3 5.66796V13.468C6.8 14.568 6 16.268 6 18.068C6 21.268 8.7 23.968 12 23.968C15.3 23.968 18 21.268 18 18.068C18 16.268 17.2 14.568 15.7 13.468ZM12 21.968C9.8 21.968 8 20.168 8 18.068C8 16.768 8.7 15.568 9.8 14.768C10.1 14.568 10.3 14.268 10.3 13.968V5.66796C10.3 5.26796 10.5 4.76796 10.8 4.46796C11.1 4.16796 11.5 3.96796 12 3.96796C13 3.96796 13.7 4.76796 13.7 5.66796V13.968C13.7 14.268 13.9 14.668 14.2 14.768C15.3 15.468 16 16.668 16 18.068C16 20.168 14.2 21.968 12 21.968Z" fill="black"/>
<path d="M12 20.968C13.6016 20.968 14.9 19.6696 14.9 18.068C14.9 16.4663 13.6016 15.168 12 15.168C10.3984 15.168 9.10001 16.4663 9.10001 18.068C9.10001 19.6696 10.3984 20.968 12 20.968Z" fill="black"/>
</svg>

<svg xmlns="http://www.w3.org/2000/svg" fill="none" viewBox="0 0 24 25"><path fill="#000" d="M15.7 13.468v-7.8c0-2-1.6-3.7-3.7-3.7-1 0-1.9.4-2.6 1.1s-1.1 1.6-1.1 2.6v7.8c-1.5 1.1-2.3 2.8-2.3 4.6 0 3.2 2.7 5.9 6 5.9s6-2.7 6-5.9c0-1.8-.8-3.5-2.3-4.6m-3.7 8.5c-2.2 0-4-1.8-4-3.9 0-1.3.7-2.5 1.8-3.3.3-.2.5-.5.5-.8v-8.3c0-.4.2-.9.5-1.2s.7-.5 1.2-.5c1 0 1.7.8 1.7 1.7v8.3c0 .3.2.7.5.8 1.1.7 1.8 1.9 1.8 3.3 0 2.1-1.8 3.9-4 3.9"/><path fill="#000" d="M12 20.968a2.9 2.9 0 1 0 0-5.8 2.9 2.9 0 0 0 0 5.8"/></svg>
